img/source-icon/Digital-Cinema-white.svg

<svg width="24" height="24" viewBox="0 0 24 24" fill="none" xmlns="http://www.w3.org/2000/svg">
<path d="M22.6107 21.4466C22.4728 21.6349 22.3415 21.8141 22.2053 22C20.0106 20.3698 19.1209 18.1286 19.0859 15.4524C19.0554 15.4961 19.0374 15.5184 19.023 15.5431C17.6612 17.8856 15.6592 19.3656 13.0224 19.9785C12.0897 20.1954 11.1413 20.2398 10.188 20.1378C7.92565 19.8958 6.00468 18.9547 4.44785 17.2962C3.24653 16.0164 2.46763 14.5066 2.16107 12.7763C1.66067 9.95077 2.32467 7.41235 4.17487 5.21816C5.55274 3.58409 7.32331 2.58043 9.42251 2.16519C10.1949 2.01239 10.975 1.96513 11.7601 2.02534C15.8264 2.33719 19.1504 5.22032 20.0034 9.10951C20.2555 10.2588 20.263 11.4128 20.061 12.5724C19.8873 13.5691 19.7779 14.5735 19.7926 15.5875C19.8101 16.7989 20.0173 17.9683 20.5698 19.061C21.0344 19.98 21.6881 20.7389 22.5035 21.3624C22.5351 21.3866 22.5661 21.4116 22.6107 21.4466ZM6.50339 6.01361C5.17469 5.99657 4.03046 7.1089 4.00407 8.42609C3.97625 9.8246 5.05571 10.9588 6.41896 10.9899C7.83713 11.0223 8.96241 9.92942 8.98376 8.52828C9.00487 7.15616 7.89518 6.03136 6.50339 6.01361ZM18.7464 10.4178C18.74 9.03827 17.6188 7.9197 16.2514 7.92858C14.8692 7.93769 13.762 9.05842 13.7687 10.4418C13.7751 11.8055 14.9 12.9164 16.2692 12.9116C17.6358 12.9066 18.7529 11.782 18.7464 10.4178ZM9.60506 5.9781C9.5993 7.34111 10.7179 8.46759 12.0825 8.47311C13.4503 8.47862 14.5783 7.36486 14.5843 6.00305C14.5903 4.61966 13.4787 3.49389 12.1017 3.48958C10.7313 3.48502 9.61105 4.60167 9.60506 5.9781ZM7.39191 17.0918C8.77651 17.094 9.88452 15.9929 9.88668 14.6126C9.88859 13.2355 8.78634 12.1231 7.41638 12.1198C6.03155 12.1164 4.9185 13.2175 4.91538 14.5942C4.91178 15.9785 6.01356 17.0896 7.39191 17.0918ZM10.8848 15.7722C10.8803 17.1407 11.9825 18.2576 13.3443 18.2648C14.7308 18.272 15.8518 17.1736 15.858 15.8022C15.8643 14.4109 14.7642 13.2964 13.3803 13.2918C11.9998 13.2873 10.8894 14.3907 10.8848 15.7722ZM9.46856 11.0957C9.47 11.9986 10.1961 12.7216 11.1002 12.7204C11.9931 12.7192 12.7158 11.9905 12.7156 11.0914C12.7154 10.1957 11.9892 9.46645 11.0959 9.46477C10.1956 9.46333 9.46712 10.1935 9.46856 11.0957Z" fill="white"/>
</svg>

<svg width="24" height="24" fill="none" xmlns="http://www.w3.org/2000/svg"><path d="m22.61 21.447-.405.553c-2.194-1.63-3.084-3.871-3.12-6.548-.03.044-.048.066-.062.091-1.362 2.343-3.364 3.823-6 4.436a8.467 8.467 0 0 1-2.835.159c-2.262-.242-4.183-1.183-5.74-2.842-1.201-1.28-1.98-2.79-2.287-4.52-.5-2.825.164-5.364 2.014-7.558C5.553 3.584 7.323 2.58 9.423 2.165a8.606 8.606 0 0 1 2.337-.14c4.066.312 7.39 3.195 8.243 7.085.253 1.149.26 2.303.058 3.462-.174.997-.283 2.002-.268 3.016.017 1.21.224 2.38.777 3.473a6.653 6.653 0 0 0 1.933 2.301l.108.085zM6.504 6.014C5.175 5.997 4.03 7.109 4.004 8.426 3.976 9.825 5.056 10.96 6.42 10.99a2.48 2.48 0 0 0 2.565-2.462c.02-1.372-1.089-2.497-2.48-2.514zm12.243 4.404c-.006-1.38-1.127-2.498-2.495-2.49a2.495 2.495 0 0 0-2.482 2.514 2.494 2.494 0 0 0 2.5 2.47 2.494 2.494 0 0 0 2.477-2.494zm-9.14-4.44a2.498 2.498 0 0 0 2.476 2.495 2.497 2.497 0 0 0 2.502-2.47 2.496 2.496 0 0 0-2.482-2.513 2.498 2.498 0 0 0-2.497 2.488zM7.391 17.092a2.476 2.476 0 0 0 2.495-2.48 2.479 2.479 0 0 0-2.47-2.492 2.479 2.479 0 0 0-2.502 2.474 2.476 2.476 0 0 0 2.477 2.498zm3.493-1.32a2.48 2.48 0 0 0 2.46 2.493 2.482 2.482 0 0 0 2.513-2.463 2.48 2.48 0 0 0-2.478-2.51 2.48 2.48 0 0 0-2.495 2.48zm-1.416-4.676a1.623 1.623 0 1 0 3.247-.005c0-.895-.727-1.625-1.62-1.626a1.625 1.625 0 0 0-1.627 1.63z" fill="#fff"/></svg>
